!!!COM: Music21
!!!OTL: waltz_Cronan-Na-Mathar
!!!OMV: waltz_Cronan-Na-Mathar
**kern
*clefG2
*k[f#c#]
*D:
*M3/4
=1
8.aaL
16ff#Jk
=
4dd
12f#L
12a
12cc#J
8eeL
8ddJ
=
4b
16aLL
16dd
16cc#
16bJJ
4a
=
8ddnL
8eeJ
4ff#
4gg
=
8aa-X
8.aanL
16ff#Jk
[4dd
8ryy
=
4dd]
12f#L
12a
12cc#J
8eeL
8ddJ
=
4b
16aLL
16ddJJ
16cc#LL
16bJJ
8dd
8ryy
!!linebreak:original
=
4ff#
4ee
4ryy
=
16eeKL
8.aanJ
8aa-XL
8ff#J
4ee
=
16aLL
16cc#J
8eeJ
16aLL
16cc#J
8eeJ
8ff#L
16ff#L
16eeJJ
=
*M1/16
16dd
=
*M3/4
4b
8bL
8aJ
8.a-XL
16bJk
=
4dd
8ff#
8ee
8a
8ryy
!!linebreak:original
=
8aa-X
8.aanL
16ff#Jk
[4dd
8ryy
=
4dd]
12f#L
12a
12cc#J
16eeKL
8.ddJ
=
4b
16aLL
16dd
16cc#
16bJJ
8.ddL
16eeJk
=
4ff#
4ee
4ryy
=||
*M3/4
8.aaL
16ff#Jk
=
4dd
12f#L
12a
12cc#J
8eeL
8ddJ
!!linebreak:original
=
4b
16aLL
16dd
16cc#
16bJJ
4a
=
8ddnL
8eeJ
4ff#
4gg
=
8aa-X
8.aanL
16ff#Jk
[4dd
8ryy
=
4dd]
12f#L
12a
12cc#J
8eeL
8ddJ
=
4b
16aLL
16ddJJ
16cc#LL
16bJJ
8dd
8ryy
=
4ff#
4ee
4ryy
!!linebreak:original
=
16eeKL
8.aanJ
8aa-XL
8ff#J
4ee
=
16aLL
16cc#J
8eeJ
16aLL
16cc#J
8eeJ
8ff#L
16ff#L
16eeJJ
=
*M1/16
16dd
=
*M3/4
4b
8bL
8aJ
8.a-XL
16bJk
=
4dd
8ff#
8ee
8a
8ryy
=
8aa-X
8.aanL
16ff#Jk
[4dd
8ryy
!!linebreak:original
=
4dd]
12f#L
12a
12cc#J
16eeKL
8.ddJ
=
4b
16aLL
16dd
16cc#
16bJJ
8.ddL
16eeJk
=
4ff#
4ee
4ryy
=||
*-
